2 Export/Icons/Brands/Apple Music.svg

<svg xmlns="http://www.w3.org/2000/svg" xmlns:xlink="http://www.w3.org/1999/xlink" width="24" height="24" viewBox="0 0 24 24">
  <defs>
    <path id="apple-music-a" d="M20.9954587,7.59204809 C20.9954587,7.03857242 20.9467109,6.48959656 20.8154666,5.9496203 C20.5777271,4.9671635 20.0190017,4.21719648 19.1805385,3.66747065 C18.7500575,3.38698298 18.2775782,3.21299063 17.7728504,3.12224462 C17.3851175,3.05249769 16.9943847,3.02099908 16.599902,3.00974957 C16.5699033,3.00749967 16.5376547,3.0022499 16.5069061,3 L7.4893026,3 C7.37530762,3.00749967 7.2620626,3.01274944 7.14806761,3.01949914 C6.58784224,3.05174772 6.03061674,3.11174509 5.50338993,3.32023592 C4.50143398,3.71771844 3.77846577,4.40918804 3.3547344,5.40514425 C3.21074073,5.74112947 3.13574403,6.09886374 3.08249637,6.46109781 C3.04049822,6.75508489 3.01649927,7.04982193 3.00749967,7.3460589 C3.00749967,7.37005785 3.0022499,7.39255686 3,7.41580584 L3,16.5826528 C3.00749967,16.6876482 3.01274944,16.7948934 3.02024911,16.9006388 C3.05774746,17.5118619 3.13574403,18.1185852 3.39298272,18.6803105 C3.88046129,19.7452637 4.69642541,20.4449829 5.81837608,20.7817181 C6.13336223,20.8769639 6.46034785,20.921962 6.78808344,20.9527106 C7.20431514,20.9924589 7.62054683,20.9977086 8.03827847,20.9977086 L16.3104147,20.9977086 C16.7041474,20.9977086 17.0963802,20.9722098 17.487863,20.9227119 C18.1050858,20.8432154 18.6855603,20.6602235 19.2097873,20.3152386 C19.8397596,19.9005069 20.3137387,19.3500311 20.6197253,18.6593115 C20.7592191,18.3443253 20.8394656,18.0068401 20.8972131,17.6663551 C20.9819593,17.1601274 21.0007085,16.6478999 20.9999799,16.1364224 C20.9984586,13.2865477 20.9999799,10.4404228 20.9977086,7.59204809 L20.9954587,7.59204809 Z M16.1784205,10.5844165 L16.1784205,14.8682282 C16.1784205,15.1809644 16.1349225,15.4884509 15.9954286,15.7726884 C15.7779382,16.2151689 15.4254536,16.4941567 14.9544744,16.6276508 C14.6919859,16.7026475 14.4249976,16.7453956 14.1520096,16.7573951 C13.439541,16.7911436 12.8223181,16.3074149 12.6948237,15.6054457 C12.5883284,15.0257212 12.8650662,14.3874993 13.4732895,14.0890124 C13.7155288,13.9690177 13.9757674,13.9015207 14.2367559,13.8460231 C14.5202435,13.7845258 14.8052309,13.7312781 15.0872185,13.666031 C15.2927095,13.6187831 15.4299535,13.4935386 15.4697017,13.279048 C15.4802012,13.2318001 15.484701,13.1815523 15.484701,13.1343044 C15.484701,11.7731142 15.484701,10.4119241 15.4832011,9.05223388 C15.4832011,9.00573593 15.4757014,8.958488 15.463702,8.91348998 C15.4337033,8.80099493 15.3512069,8.731248 15.235712,8.7379977 C15.1157173,8.74549737 14.9972225,8.76424654 14.8794777,8.78749552 C14.3095027,8.89999058 13.7395278,9.01473553 13.1695528,9.12948049 L11.4251295,9.48196499 L10.3946749,9.69045582 C10.3826754,9.69270572 10.3706759,9.69795549 10.3586764,9.70020539 C10.1509356,9.75795285 10.0759389,9.8524487 10.0661893,10.0676892 C10.0646894,10.0991878 10.0661893,10.1321864 10.0661893,10.1651849 C10.0646894,12.1165991 10.0661893,14.0680133 10.0639394,16.0186776 C10.0639394,16.3336637 10.0286909,16.64565 9.90269649,16.9388871 C9.69420565,17.418866 9.32522188,17.7188528 8.82724377,17.8635964 C8.56475532,17.9385931 8.29476719,17.9835912 8.02102922,17.9925908 C7.30106088,18.0195896 6.7048371,17.5426106 6.58109254,16.8346417 C6.47609716,16.2256685 6.75358495,15.5709473 7.44655448,15.2784601 C7.71429271,15.1659651 7.99403041,15.1044678 8.27751795,15.0459703 C8.49275848,15.0009723 8.70874898,14.9589742 8.92248959,14.9132262 C9.20972696,14.8509789 9.35972036,14.6709868 9.3724698,14.3777497 L9.3724698,14.2652547 C9.3724698,12.0453523 9.3724698,9.82394995 9.37396973,7.60404756 C9.37396973,7.51180161 9.38371931,7.4165558 9.40546835,7.32655976 C9.45796604,7.11281916 9.61020935,6.99057453 9.81495034,6.93807684 C10.0061919,6.88857902 10.2011834,6.85408054 10.3954248,6.81433228 C10.9451506,6.70183723 11.4948765,6.59234204 12.0453523,6.48134692 L13.7477774,6.13636209 C14.2502553,6.03586651 14.7527332,5.933871 15.2552111,5.83412538 C15.4202039,5.8018768 15.5874465,5.76812828 15.7531892,5.75462888 C15.985679,5.7358797 16.145422,5.88212327 16.168671,6.11611298 C16.1746707,6.17086058 16.1776706,6.2271081 16.1776706,6.28335563 C16.1791705,7.71579265 16.1791705,9.14972959 16.1776706,10.5821666 L16.1784205,10.5844165 Z"/>
  </defs>
  <g fill="none" fill-rule="evenodd">
    <polygon points="0 0 24 0 24 24 0 24"/>
    <mask id="apple-music-b" fill="#fff">
      <use xlink:href="#apple-music-a"/>
    </mask>
    <use fill="#000" xlink:href="#apple-music-a"/>
    <g fill="#000" mask="url(#apple-music-b)">
      <rect width="24" height="24"/>
    </g>
  </g>
</svg>

<svg xmlns="http://www.w3.org/2000/svg" xmlns:xlink="http://www.w3.org/1999/xlink" width="24" height="24" viewBox="0 0 24 24">
  <defs>
    <path id="apple-music-a" d="M20.995 7.592c0-.553-.048-1.102-.18-1.642-.237-.983-.796-1.733-1.634-2.283a3.766 3.766 0 0 0-1.408-.545A7.872 7.872 0 0 0 16.6 3.01c-.03-.003-.062-.008-.093-.01H7.489l-.34.02c-.561.032-1.118.092-1.646.3-1.002.398-1.725 1.09-2.148 2.085a4.216 4.216 0 0 0-.273 1.056 7.957 7.957 0 0 0-.075.885c0 .024-.005.047-.007.07v9.167l.02.318c.038.61.116 1.218.373 1.78.487 1.064 1.303 1.764 2.425 2.1.315.096.642.141.97.172.416.04.833.045 1.25.045h8.272c.394 0 .786-.026 1.178-.075.617-.08 1.198-.263 1.722-.608a3.784 3.784 0 0 0 1.41-1.656c.14-.315.22-.652.277-.993a9.168 9.168 0 0 0 .103-1.53c-.002-2.85 0-5.696-.002-8.544h-.003zm-4.817 2.992v4.284c0 .313-.043.62-.183.905a1.59 1.59 0 0 1-1.04.855 3.46 3.46 0 0 1-.803.13 1.4 1.4 0 0 1-1.457-1.153 1.41 1.41 0 0 1 .778-1.516 3.2 3.2 0 0 1 .764-.243c.283-.061.568-.115.85-.18.206-.047.343-.172.383-.387a.678.678 0 0 0 .015-.145c0-1.36 0-2.722-.002-4.082a.543.543 0 0 0-.02-.139c-.03-.112-.112-.182-.227-.175-.12.007-.239.026-.357.05-.57.112-1.14.227-1.71.341l-1.744.353-1.03.208c-.012.003-.024.008-.036.01-.208.058-.283.152-.293.368v.097c-.001 1.952 0 3.903-.002 5.854 0 .315-.035.627-.161.92-.209.48-.578.78-1.076.925-.262.075-.532.12-.806.129a1.38 1.38 0 0 1-1.44-1.158 1.4 1.4 0 0 1 .866-1.557c.267-.112.547-.174.83-.232.216-.045.432-.087.645-.133.288-.062.438-.242.45-.535v-.113c0-2.22 0-4.441.002-6.661 0-.092.01-.187.031-.277.053-.214.205-.336.41-.389.191-.05.386-.084.58-.124l1.65-.333 1.703-.345 1.507-.302c.165-.032.332-.066.498-.08.233-.018.392.128.416.362.006.055.009.111.009.167v4.301z"/>
  </defs>
  <g fill="none" fill-rule="evenodd">
    <polygon points="0 0 24 0 24 24 0 24"/>
    <mask id="apple-music-b" fill="#fff">
      <use xlink:href="#apple-music-a"/>
    </mask>
    <use fill="#000" xlink:href="#apple-music-a"/>
    <g fill="#000" mask="url(#apple-music-b)">
      <rect width="24" height="24"/>
    </g>
  </g>
</svg>
